Newaita-dark/actions/22/code-context.svg

<?xml version="1.0" encoding="UTF-8"?>
<svg xmlns="http://www.w3.org/2000/svg" xmlns:xlink="http://www.w3.org/1999/xlink" width="22pt" height="22pt" viewBox="0 0 22 22" version="1.1">
<g id="surface1">
<path style=" stroke:none;fill-rule:nonzero;fill:rgb(47.058824%,56.470591%,61.176473%);fill-opacity:1;" d="M 7.277344 1.992188 C 5.261719 1.992188 3.636719 3.613281 3.636719 5.628906 L 3.636719 9.496094 C 3.636719 10.175781 2.5 10.175781 1.820312 10.175781 C 1.566406 10.175781 1.363281 10.582031 1.363281 11.085938 C 1.363281 11.589844 1.566406 11.996094 1.820312 11.996094 C 2.5 11.996094 3.636719 11.996094 3.636719 12.679688 L 3.636719 16.542969 C 3.636719 18.558594 5.261719 20.183594 7.277344 20.183594 L 8.1875 20.183594 C 8.4375 20.183594 8.640625 19.777344 8.640625 19.273438 C 8.640625 18.769531 8.4375 18.363281 8.1875 18.363281 C 8.1875 18.363281 8.1875 18.363281 8.183594 18.363281 L 7.277344 18.363281 C 6.269531 18.363281 5.457031 17.550781 5.457031 16.542969 L 5.457031 12.679688 C 5.457031 11.882812 5.34375 11.085938 4.546875 11.085938 C 5.34375 11.085938 5.457031 10.292969 5.457031 9.496094 L 5.457031 5.628906 C 5.457031 4.621094 6.269531 3.808594 7.277344 3.808594 L 8.1875 3.808594 C 8.4375 3.808594 8.640625 3.40625 8.640625 2.902344 C 8.640625 2.398438 8.4375 1.992188 8.1875 1.992188 Z M 14.554688 1.992188 C 14.300781 1.992188 14.097656 2.398438 14.097656 2.902344 C 14.097656 3.40625 14.300781 3.808594 14.554688 3.808594 L 15.464844 3.808594 C 16.472656 3.808594 17.28125 4.621094 17.28125 5.628906 L 17.28125 9.496094 C 17.289062 10.191406 17.390625 11.074219 18.191406 11.085938 C 17.34375 11.148438 17.285156 12.011719 17.28125 12.679688 L 17.28125 16.542969 C 17.28125 17.550781 16.472656 18.363281 15.464844 18.363281 L 14.554688 18.363281 C 14.300781 18.363281 14.097656 18.769531 14.097656 19.273438 C 14.097656 19.777344 14.300781 20.183594 14.554688 20.183594 L 15.464844 20.183594 C 17.480469 20.183594 19.101562 18.558594 19.101562 16.542969 L 19.101562 12.679688 C 19.101562 11.996094 20.238281 11.996094 20.921875 11.996094 C 21.171875 11.996094 21.375 11.589844 21.375 11.085938 C 21.375 10.582031 21.171875 10.175781 20.921875 10.175781 C 20.238281 10.175781 19.101562 10.175781 19.101562 9.496094 L 19.101562 5.628906 C 19.101562 3.613281 17.480469 1.992188 15.464844 1.992188 Z M 14.554688 1.992188 "/>
</g>
</svg>

<svg xmlns="http://www.w3.org/2000/svg" width="22pt" height="22pt" viewBox="0 0 22 22"><path d="M7.277 1.992a3.631 3.631 0 0 0-3.64 3.637v3.867c0 .68-1.137.68-1.817.68-.254 0-.457.406-.457.91s.203.91.457.91c.68 0 1.817 0 1.817.684v3.863a3.634 3.634 0 0 0 3.64 3.64h.91c.25 0 .454-.406.454-.91 0-.503-.204-.91-.454-.91h-.91a1.817 1.817 0 0 1-1.82-1.82V12.68c0-.797-.113-1.594-.91-1.594.797 0 .91-.793.91-1.59V5.63c0-1.008.813-1.82 1.82-1.82h.91c.25 0 .454-.403.454-.907s-.204-.91-.454-.91zm7.278 0c-.254 0-.457.406-.457.91s.203.907.457.907h.91c1.008 0 1.816.812 1.816 1.82v3.867c.008.695.11 1.578.91 1.59-.847.062-.906.926-.91 1.594v3.863c0 1.008-.808 1.82-1.816 1.82h-.91c-.254 0-.457.407-.457.91 0 .504.203.91.457.91h.91a3.631 3.631 0 0 0 3.637-3.64V12.68c0-.684 1.136-.684 1.82-.684.25 0 .453-.406.453-.91s-.203-.91-.453-.91c-.684 0-1.82 0-1.82-.68V5.63a3.628 3.628 0 0 0-3.637-3.637zm0 0" fill="#78909c"/></svg>
